X: 97
T:Highland Watch. JMT.094
M:4/4
L:1/8
Q:200
S:J.Moore,Tyneside,1841.(67a)
R:Reel
O:England
A:Northumbria
N:Key Sig shows G,D,B sharps,but I have assumed three sharps,which is
Z:vmp.Chris Partington
K:A
"see note re key"A,G,A,B, A,A,A,A,|GEDB, G,/G,/G,G,2|\
A,B,CD AGAc|GEDB, A,/A,/A,A,2:|!
|:a2ab a/a/aa2|Egge dBG2|cBcd edea|gedB A/A/AA2:||
